build/img/vg.svg

<svg width="40" height="40" viewBox="0 0 40 40" fill="none" xmlns="http://www.w3.org/2000/svg">
<rect width="40" height="40" rx="20" fill="#18A0FB"/>
<path d="M12.3542 19.3659C12.3542 19.3659 12.9748 19.2972 14.1493 17.3107C14.1493 17.3107 14.1759 17.2759 14.2199 17.2092C14.8028 19.9252 17.6081 19.4857 17.6081 19.4857L17.8773 18.4325C15.9928 18.8432 15.9684 16.6088 15.9684 16.6088L18.8562 17.6105C19.1125 17.3275 19.2756 16.9761 19.3444 16.5983C19.3717 17.5031 19.2904 18.4786 19.0278 19.4857C19.0278 19.4857 20.7733 18.8174 21.9808 19.9822C21.9808 19.9822 21.8654 17.9594 21.2618 15.8679C21.608 15.6544 22.348 15.3394 22.4785 16.4546C22.6501 17.9188 24.6075 19.9479 26.4432 17.4305C26.4432 17.4305 25.2931 18.0984 24.6567 16.7115C24.0613 15.414 23.8302 13.7132 22.2211 14.2125C23.1423 13.4794 24.004 12.2923 22.919 11.1888C21.4723 9.71721 19.2168 11.4742 18.8196 11.8048C18.5596 11.6346 18.279 11.5031 17.9753 11.4199C17.9753 11.4199 18.9058 13.0231 19.2357 15.3382C19.0245 14.7394 18.5822 14.1859 17.9018 13.8346C17.0919 13.4158 16.0157 13.4915 15.2188 14.052C15.3874 12.6507 15.3479 10.7743 14.7695 8.37207L11.963 9.84486C11.963 9.84486 14.1493 14.2285 12.1586 17.1397C12.1586 17.1397 9.61322 15.5299 11.2123 12.2763L9.58104 11.968C9.58104 11.968 8.73973 12.9637 8.8466 14.5283C8.97049 16.3364 10.172 18.7827 12.3542 19.3659ZM21.818 12.1588C22.4541 12.979 21.5022 13.714 20.6757 13.8733C20.6757 13.8733 20.5241 12.9048 19.9742 12.2744C19.9742 12.2744 21.182 11.3383 21.818 12.1588ZM17.6296 14.5782C18.1584 14.7672 18.4472 15.3917 18.3455 16.0459L16.2339 15.2399C16.5401 14.6848 17.1148 14.3944 17.6296 14.5782ZM27.7568 16.8653H27.7923C27.4791 17.9953 26.9199 18.6398 26.2232 19.1086C24.9503 19.965 23.2862 19.4857 23.2862 19.4857C23.6615 20.5814 27.7568 22.6362 29.0293 19.006C30.3018 15.3757 28.0016 12.8927 28.0016 12.8927C28.12 14.3955 28.0734 15.5326 27.8992 16.4133C27.5634 16.4644 25.7824 16.5698 26.5819 12.8244L24.7547 12.105C24.7547 12.105 23.8409 17.2424 27.7568 16.8653Z" fill="white"/>
<path d="M29.0782 22.157C26.9085 21.6089 25.5213 22.3112 25.5213 22.3112C25.5213 22.3112 26.8268 22.739 27.0553 24.9484C27.2835 27.1573 24.9829 28.6813 24.9829 28.6813C24.9829 28.6813 27.5283 29.1778 29.4372 28.3385C31.3462 27.4997 31.3954 25.4449 31.3954 25.1537C31.3954 24.8625 31.2482 22.705 29.0782 22.157ZM28.529 26.8158C28.4905 26.8177 28.4528 26.8166 28.4147 26.8142C28.7468 26.4551 28.9502 25.8895 28.9243 25.2606C28.8932 24.4944 28.5312 23.8511 28.039 23.5759C28.1514 23.5345 28.2701 23.508 28.394 23.5021C29.1591 23.4678 29.8096 24.1817 29.847 25.0967C29.8843 26.0121 29.2945 26.7818 28.529 26.8158ZM26.0516 25.2122C26.0516 23.5532 24.7532 22.2081 23.1516 22.2081C22.9929 22.2081 22.8372 22.2222 22.686 22.2475C22.2663 21.1698 21.2578 20.4102 20.0799 20.4102C18.648 20.4102 17.4665 21.5332 17.2894 22.9857C16.0475 23.2254 14.704 24.0537 14.2551 26.395L15.7484 26.7549C15.7484 26.7549 16.0461 25.8832 16.8445 25.099L16.8741 25.188C16.8741 25.188 17.0701 27.7565 15.0875 28.0649C13.105 28.3733 11.9057 26.087 12.5177 24.5717C13.1297 23.0559 14.3779 23.4584 14.3779 23.4584L16.7923 21.078L15.8867 20.6842C13.3331 19.7423 10.0459 21.4891 9.84991 25.3161C9.65428 29.1434 13.7414 31.4812 16.5804 29.5291C18.1181 28.4716 18.4206 26.9169 18.3751 25.7138C18.8485 26.0929 19.4387 26.3181 20.0799 26.3181C20.2042 26.3181 20.3259 26.3087 20.4457 26.2927C20.8647 27.4173 21.9179 28.2156 23.1516 28.2156C24.7532 28.2156 26.0516 26.8708 26.0516 25.2122ZM20.7038 23.6016C20.6761 23.6473 20.6491 23.6934 20.6232 23.7406C20.439 24.01 20.1387 24.186 19.7985 24.186C19.5508 24.186 19.3237 24.0927 19.1469 23.9377C19.3496 23.9053 19.5618 23.8835 19.7863 23.878L19.7131 23.1075C19.7131 23.1075 19.3459 22.9915 18.7997 22.9334C18.884 22.4341 19.2985 22.0543 19.7985 22.0543C20.3595 22.0543 20.8144 22.5313 20.8144 23.1203C20.8144 23.2937 20.7741 23.4568 20.7038 23.6016ZM22.5273 26.087C22.2248 26.087 21.9534 25.9488 21.7652 25.7302C22.3018 25.3086 22.6897 24.6903 22.8332 23.9779C23.2518 24.1146 23.5554 24.5244 23.5554 25.0081C23.5554 25.6037 23.095 26.087 22.5273 26.087Z" fill="white"/>
</svg>

<svg width="40" height="40" fill="none" xmlns="http://www.w3.org/2000/svg"><rect width="40" height="40" rx="20" fill="#18A0FB"/><path d="M12.354 19.366s.62-.069 1.795-2.055c0 0 .027-.035.07-.102.584 2.716 3.39 2.277 3.39 2.277l.268-1.053c-1.884.41-1.909-1.824-1.909-1.824l2.888 1.001c.256-.282.42-.634.488-1.012.028.905-.054 1.88-.316 2.888 0 0 1.745-.669 2.953.496 0 0-.116-2.023-.72-4.114.347-.214 1.087-.529 1.218.587.171 1.464 2.129 3.493 3.964.976 0 0-1.15.667-1.786-.72-.596-1.297-.827-2.998-2.436-2.498.921-.734 1.783-1.92.698-3.024-1.447-1.472-3.702.285-4.1.616-.26-.17-.54-.302-.844-.385 0 0 .93 1.603 1.26 3.918a2.705 2.705 0 00-1.333-1.503c-.81-.42-1.886-.344-2.683.217.168-1.401.129-3.278-.45-5.68l-2.806 1.473s2.186 4.383.196 7.295c0 0-2.546-1.61-.947-4.864l-1.631-.308s-.841.996-.734 2.56c.123 1.808 1.325 4.255 3.507 4.838zm9.464-7.207c.636.82-.316 1.555-1.142 1.714 0 0-.152-.968-.702-1.599 0 0 1.208-.936 1.844-.115zm-4.188 2.42c.528.188.817.813.716 1.467l-2.112-.806c.306-.555.88-.846 1.396-.662zm10.127 2.286h.035c-.313 1.13-.872 1.775-1.569 2.244-1.273.856-2.937.377-2.937.377.375 1.095 4.47 3.15 5.743-.48 1.273-3.63-1.027-6.113-1.027-6.113.118 1.502.071 2.64-.103 3.52-.336.051-2.117.157-1.317-3.589l-1.827-.719s-.914 5.137 3.002 4.76zm1.321 5.292c-2.17-.548-3.557.154-3.557.154s1.306.428 1.534 2.637c.229 2.21-2.072 3.733-2.072 3.733s2.545.497 4.454-.343c1.91-.838 1.958-2.893 1.958-3.184 0-.291-.147-2.449-2.317-2.997zm-.549 4.659c-.038.002-.076 0-.114-.002.332-.359.535-.924.51-1.553-.032-.767-.394-1.41-.886-1.685a1.2 1.2 0 01.355-.074c.765-.034 1.416.68 1.453 1.595.037.915-.553 1.685-1.318 1.719zm-2.477-1.604c0-1.659-1.299-3.004-2.9-3.004a2.82 2.82 0 00-.466.04c-.42-1.078-1.428-1.838-2.606-1.838-1.432 0-2.613 1.123-2.79 2.576-1.242.24-2.586 1.068-3.035 3.409l1.493.36s.298-.872 1.097-1.656l.03.089s.195 2.569-1.787 2.877c-1.983.308-3.182-1.978-2.57-3.493.612-1.516 1.86-1.114 1.86-1.114l2.414-2.38-.905-.394c-2.554-.942-5.841.805-6.037 4.632-.196 3.827 3.891 6.165 6.73 4.213 1.538-1.057 1.84-2.612 1.795-3.815a2.715 2.715 0 002.07.579c.42 1.124 1.473 1.923 2.707 1.923 1.601 0 2.9-1.345 2.9-3.004zm-5.348-1.61a3.727 3.727 0 00-.08.139 1 1 0 01-.825.445.985.985 0 01-.652-.248c.203-.033.415-.054.64-.06l-.074-.77s-.367-.117-.913-.175c.084-.499.498-.879.998-.879.562 0 1.016.477 1.016 1.066 0 .174-.04.337-.11.482zm1.823 2.485c-.302 0-.574-.138-.762-.357a2.973 2.973 0 001.068-1.752c.419.137.722.546.722 1.03 0 .596-.46 1.079-1.028 1.079z" fill="#fff"/></svg>
